X:1
T:Title
%%score { ( 1 3 ) | ( 2 4 ) }
L:1/8
M:4/4
K:Bb
V:1 treble nm="Grand Piano"
V:3 treble 
V:2 bass 
V:4 bass 
V:1
 z4 z2[Q:1/4=100] [DF]2 | [DF]3 [DF] [EG][DF] [EG]>[DF] | [DF]2 D4 z2 | F4 F2 F2 | [DF]4 z2 [DF]2 | %5
 [DF]3 [DF] [EG][DF] [B,D]>[DF] | [EG]2 [GB]4 [FB]2 | A3 B cB d>c | B2 G4 z2 | z4 z2 F2 | %10
 [DB]6 z2 | [DF]4 [Fd]2 [FB]2 | [EG]6 z2 | [=EG]4 B2 G2 | F8 | %15
 [B,DF]3 [B,DF][K:bass] [F,B,D][F,CE][K:treble][DF][DB] | %16
[M:9/8] [Fd]2 [FB]- [FB] [EG]2- [EG] [EB]2 |[M:4/4] [DF]2 [DB]2 [Fd]3 [FB] | [Fc]6 z2 | %19
 [Fd]3 [Ge] [Fd][Ec][DB][FA] |[M:9/8] G2 G- G B2- B G2 |[M:4/4] F2 F2 G3 F |[M:3/4] B6 |] %23
V:2
 z4 z2 [B,,B,]2 | [B,,B,]3 [B,,B,] [B,,B,][B,,B,] [B,,B,]>[B,,B,] | [B,,B,]2 [B,,F,B,]4 z2 | %3
 [F,A,C]4 [F,B,D]2 [F,CE]2 | [B,,B,]4 z2 [B,,B,]2 | %5
 [B,,B,]3 [B,,B,] [B,,F,][B,,B,] [B,,F,]>[B,,B,] | [E,B,]2 [E,B,]4 [D,B,]2 | %7
 [F,CF]3 [F,DF] [F,EF][F,DF] [F,B,F]>[^F,A,E] | [G,B,D]2 [E,B,E]4 z2 | %9
 [F,B,D]4 [F,A,E]2 .[F,A,E]2 | [B,,F,]6 z2 | [B,,B,]4 [B,,B,]2 [D,B,]2 | [E,B,]6 z2 | %13
 [C,C]4 G,2 B,2 | A,2 B,2 C4 | B,,3 B,, B,,B,,[B,,B,][B,,B,] | %16
[M:9/8] [B,,B,]2 [D,B,]- [D,B,] [E,B,]2- [E,B,] [E,G,]2 | %17
[M:4/4] [B,,B,]2 [B,,F,]2 [B,,B,]3 [D,B,] | [F,A,]6 z2 | %19
 [B,,B,]3 [B,,B,] [B,,B,][F,A,][G,B,][D,B,] | %20
[M:9/8] [E,B,E]2 [E,B,E]- [E,B,E] [E,G,E]2- [E,G,E] [E,B,E]2 | %21
[M:4/4] [F,B,D]2 [F,B,D]2 [F,A,E]3 [F,A,E] |[M:3/4] z2 G,2 F,2 |] %23
V:3
 x8 | x8 | x8 | x8 | x8 | x8 | x8 | x8 | x8 | F4 G2 z F, | x8 | x8 | x8 | z4 =E4 | z C D2 E4 | %15
 x4[K:bass] x2[K:treble] x2 |[M:9/8] x9 |[M:4/4] x8 | x8 | x8 |[M:9/8] x9 |[M:4/4] x8 | %22
[M:3/4] [B,D]2 E2 D2 |] %23
V:4
 x8 | x8 | x8 | x8 | x8 | x8 | x8 | x8 | x8 | x8 | x8 | x8 | x8 | z4 C,4 | F,8 | x8 |[M:9/8] x9 | %17
[M:4/4] x8 | x8 | x8 |[M:9/8] x9 |[M:4/4] x8 |[M:3/4] B,,6 |] %23

